X:1
T:James Gibb editions
T:Puer nobis nascitur - Scheidemann
T:#
%%score { 1 | 2 } 3
L:1/8
Q:1/4=124
M:3/4
K:F
V:1 treble nm="Soprano I" snm="S"
V:2 treble 
V:3 treble nm="Alto" snm="A"
V:1
"^Puer nobis nascitur""^David Scheidemann\n (1570-1625)""^allegretto" c4 A2 | F4 c2 | d4 d2 | %3
w: Pu- er|no- bis|na- sci-|
w: In prae-|se- pe|po- ni-|
w: Hinc He-|ro- des|ti- mu-|
w: Qui na-|tus ex|Ma- ri-|
w: An- ge-|li lae-|ta- ti|
w: Nos de|ta- li|gau- di-|
w: Laus et|ju- bi-|la- ti-|
 c4 c2 | d4 e2 | f4 e2 | d6 | c4 c2 |[M:3/4] c4 A2 | (F4 c2) | d4 d2 | c4 c2 | (d2 d2) c2 | %13
w: tur *|Re- ctor|an- ge-|lo-|rum *|In hoc|mun- do|pa- sci-|tur *|Do- mi- nus|
w: tur Sub|foe- no|ju- men-|to-|rum Co-|gno- vit|bos et|a- si-|nus *|Chri\- * stum|
w: it *|Ma- gno|cum tre-|mo-|re: In|fan- tes|et *|pu- e-|ros *|Oc- ci- dit|
w: a *|Di- e|ho- di-|er-|na Per-|du- cat|nos cum|gra- ti-|a Ad|gau\- * di-|
w: sunt *|E- ti-|am de|De-|o. *|Can- ta-|ve- runt:|glo- ri-|a Sit|in * ex-|
w: o *|Con- ci-|na- mus|cho-|ro, *|In chor-|dis et|or- ga-|no Be-|ne\- * di-|
w: o *|No- stro|sit in|o-|re *|Et sem-|per an-|ge- li-|cas *|De- o di-|
 (B2 B2) A2 | (G4 G2) | !fermata!F6 |] %16
w: Do\- * mi-|no\- *|rum.|
w: re- gem cae-|lo\- *|rum.|
w: prae * do-|lo\- *|re.|
w: a * su-|per\- *|na.|
w: cel\- * sis|De\- *|o.|
w: ca\- * mus|Do- mi-|no.|
w: ca- * mus|gra- ti-|as.|
V:2
 c4 A2 | F4 A2 | B4 B2 | A4 A2 | F4 G2 | A4 c2 | (c4 =B2) | c4 c2 |[M:3/4] G4 F2 | (F4 F2) | %10
w: Pu- er|no- bis|na- sci-|tur *|Re- ctor|an- ge-|lo\- *|rum *|In hoc|mun- do|
w: In prae-|se- pe|po- ni-|tur Sub|foe- no|ju- men-|to\- *|rum Co-|gno- vit|bos et|
w: Hinc He-|ro- des|ti- mu-|it *|Ma- gno|cum tre-|mo\- *|re: In|fan- tes|et *|
w: Qui na-|tus ex|Ma- ri-|a *|Di- e|ho- di-|er\- *|na Per-|du- cat|nos cum|
w: An- ge-|li lae-|ta- ti|sunt *|E- ti-|am de|De\- *|o. *|Can- ta-|ve- runt:|
w: Nos de|ta- li|gau- di-|o *|Con- ci-|na- mus|cho\- *|ro, *|In Chor-|dis et|
w: Laus et|ju- bi-|la- ti-|o *|No- stro|sit in|o\- *|re *|Et sem-|per an-|
 F4 B2 | A4 A2 | (F2 F2) F2 | (F2 E2) F2 | ((F2 D2) E2) | !fermata!F6 |] %16
w: pa- sci-|tur *|Do- mi- nus|Do\- * mi-|no\- * *|rum.|
w: a- si-|nus *|Chri\- * stum|re- gem cae-|lo\- * *|rum.|
w: pu- e-|ros *|Oc- ci- dit|prae * do-|lo\- * *|re.|
w: gra- ti-|a Ad|gau\- * di-|a * su-|per\- * *|na.|
w: glo- ri-|a Sit|in * ex-|cel\- * sis|De\- * *|o.|
w: or- ga-|no Be-|ne\- * di-|ca\- * mus|Do\- * mi-|no.|
w: ge- li-|cas *|De- o di-|ca- * mus|gra\- * ti-|as.|
V:3
 c4 A2 | F4 F2 | B,4 B,2 | F4 F2 | D4 C2 | F4 C2 | G6 | C4 C2 |[M:3/4] E4 F2 | (D4 A,2) | %10
w: Pu- er|no- bis|na- sci-|tur *|Re- ctor|an- ge-|lo-|rum *|In hoc|mun- do|
w: In prae-|se- pe|po- ni-|tur Sub|foe- no|ju- men-|to-|rum Co-|gno- vit|bos et|
w: Hinc He-|ro- des|ti- mu-|it *|Ma- gno|cum tre-|mo-|re: In|fan- tes|et *|
w: Qui na-|tus ex|Ma- ri-|a *|Di- e|ho- di-|er-|na Per-|du- cat|nos cum|
w: An- ge-|li lae-|ta- ti|sunt *|E- ti-|am de|De-|o. *|Can- ta-|ve- runt:|
w: Nos de|ta- li|gau- di-|o *|Con- ci-|na- mus|cho-|ro, *|In Chor-|dis et|
w: Laus et|ju- bi-|la- ti-|o *|No- stro|sit in|o-|re *|Et sem-|per an-|
 (B,2 D2) B,2 | F4 F2 | (B,2 B,2) A,2 | (D2 C2) D2 | (B,4 C2) | !fermata!F6 |] %16
w: pa\- * sci-|tur *|Do- mi- nus|Do\- * mi-|no\- *|rum.|
w: a\- * si-|nus *|Chri\- * stum|re- gem cae-|lo\- *|rum.|
w: pu\- * e-|ros *|Oc- ci- dit|prae * do-|lo\- *|re.|
w: gra\- * ti-|a Ad|gau\- * di-|a * su-|per\- *|na.|
w: glo\- * ri-|a Sit|in * ex-|cel\- * sis|De\- *|o.|
w: or\- * ga-|no Be-|ne\- * di-|ca\- * mus|Do- mi-|no.|
w: ge\- * li-|cas *|De- o di-|ca- * mus|gra- ti-|as.|

